X:1
T:Title
%%score { ( 1 3 ) | 2 }
L:1/8
M:4/4
K:G
V:1 treble nm="Grand Piano"
V:3 treble 
V:2 bass 
V:1
 z4 z2 z[Q:1/4=94] D | B,D[B,G][CA] [DB][DB][DB][B,DG] | [EA][EG][EG][CE] [EG]3 E | DGGA BBBB | %4
[M:7/8] AEF G A3 |[M:1/8] [Fc] |[M:4/4] BBBc dddB | [EA][E^G][EA][EB] [Ec]3 [EAc] | %8
 [DGB]<[Gd] z [Fe] [Gd]<[GB] z [DG] |[M:7/8] [DB]<[B,GB][DFB]>[CFA] [B,G]3 |[M:1/8] z | %11
[M:4/4] z4 [DB]4 | z4 [EG]4 | DGGA BBBd |[M:7/8] dAA B [FA]3 |[M:1/8] [Fc] |[M:4/4] BBBc dddB | %17
 [EA][E^G][EA][EB] [Ec]3 [EAc] | [DGB]<[Gd] z [Fe] [Gd]<[GB] z [DG] | %19
[M:15/8] [DB]<[B,GB][DFB]-[DFB]/[CFA]/ [B,G]2- [B,G] z2 z6 |] %20
V:2
 z4 z2 z D, | B,,D,[G,,G,][G,,G,] [G,,G,][G,,G,][G,,G,]G,, | [C,C][C,C][C,C][C,G,] [C,C]3 [C,G,C] | %3
 [G,B,][K:treble][G,B,D][G,B,D][G,CF] [G,DG][G,DG][G,DG][G,DG] | %4
[M:7/8][K:bass] [A,^CE][G,A,C][F,A,D] [E,A,C] [D,F,=C]3 |[M:1/8] [D,A,] | %6
[M:4/4][K:treble] [G,G][G,G][G,G][G,A,G] [G,B,G][G,B,G][G,B,G][G,DG] | %7
 [C,C][D,B,][C,A,][B,,^G,] [A,,A,]3 A,, | D,<[D,B,] z [D,C] [D,B,]<[D,D] z [D,B,] | %9
[M:7/8] [D,G,]<D,D,>D, G,3 |[M:1/8][K:treble] D | %11
[M:4/4] B,<D B,>C[K:bass] [G,,G,]G,,G,,[K:treble]=F | E<E E>C[K:bass] C,C,C,[C,G,C] | %13
 [G,B,][K:treble][G,B,D][G,B,D][G,CF] [G,DG][G,DG][G,DG][G,B,G] | %14
[M:7/8] [A,F][A,DF][A,^CG] [A,CG][K:bass] [D,D]3 |[M:1/8] [D,A,] | %16
[M:4/4][K:treble] [G,G][G,G][G,G][G,A,G] [G,B,G][G,B,G][G,B,G][G,DG] | %17
 [C,C][D,B,][C,A,][B,,^G,] [A,,A,]3 A,, | D,<[D,B,] z [D,C] [D,B,]<[D,D] z [D,B,] | %19
[M:15/8] [D,G,]<D,D,-D,/D,/ G,2- G, z2 z6 |] %20
V:3
 x8 | x8 | x8 | x8 |[M:7/8] x7 |[M:1/8] x |[M:4/4] x8 | x8 | x8 |[M:7/8] x7 |[M:1/8] x | %11
[M:4/4] z2 G>A z G,G,G | A<G G>E CCCE | x8 |[M:7/8] x7 |[M:1/8] x |[M:4/4] x8 | x8 | x8 | %19
[M:15/8] x15 |] %20

